; generated by OrcaSlicer 2.3.2-dev
; total layer number: 4
; filament_diameter: 1.75
M82
G90
G92 E0
;LAYER_CHANGE
;Z:0.30
;HEIGHT:0.30
;BEFORE_LAYER_CHANGE
G1 Z0.30 F720
;AFTER_LAYER_CHANGE
;TYPE:Outer_wall
;WIDTH:0.50
G1 X10.000 Y10.000 F9000
G1 X30.000 Y10.000 E0.90000 F1800
G1 X30.000 Y30.000 E1.80000
G1 X10.000 Y30.000 E2.70000
G1 X10.000 Y10.000 E3.60000
;TYPE:Inner_wall
;WIDTH:0.48
G1 X12.000 Y12.000 F9000
G1 X28.000 Y12.000 E4.20000 F2100
G1 X28.000 Y28.000 E4.80000
G1 X12.000 Y28.000 E5.40000
G1 X12.000 Y12.000 E6.00000
;TYPE:Bottom_surface
;WIDTH:0.62
G1 X14.000 Y14.000 F9000
G1 X26.000 Y14.000 E6.75000 F2400
G1 X14.000 Y16.000 E7.50000
G1 X26.000 Y18.000 E8.25000
G1 X14.000 Y20.000 E9.00000
;LAYER_CHANGE
;Z:0.55
;HEIGHT:0.25
;BEFORE_LAYER_CHANGE
G1 Z0.55 F720
;AFTER_LAYER_CHANGE
;TYPE:Outer_wall
;WIDTH:0.45
G1 X10.000 Y10.000 F9000
G1 X30.000 Y10.000 E9.65000 F3600
G1 X30.000 Y30.000 E10.30000
G1 X10.000 Y30.000 E10.95000
G1 X10.000 Y10.000 E11.60000
;TYPE:Sparse_infill
;WIDTH:0.48
G1 X12.000 Y12.000 F9000
G1 X28.000 Y28.000 E12.30000 F5400
G1 X28.000 Y12.000 E13.00000
G1 X12.000 Y28.000 E13.70000
EXCLUDE_OBJECT_START NAME=cube_hole
G1 X20.000 Y20.000 E14.00000 F3600
EXCLUDE_OBJECT_END NAME=cube_hole
;LAYER_CHANGE
;Z:0.80
;HEIGHT:0.25
;BEFORE_LAYER_CHANGE
G1 Z0.80 F720
;AFTER_LAYER_CHANGE
;TYPE:Internal_solid_inf
;WIDTH:0.50
G1 X11.000 Y11.000 F9000
G1 X29.000 Y11.000 E14.70000 F4800
G1 X11.000 Y13.000 E15.40000
G1 X29.000 Y15.000 E16.10000
G2 X29.000 Y25.000 I0.000 J5.000 E16.90000 F4200
;TYPE:Bridge
;WIDTH:0.55
G1 X12.000 Y20.000 F9000
G1 X28.000 Y20.000 E17.65000 F3000
G1 X12.000 Y22.000 E18.40000
;LAYER_CHANGE
;Z:1.05
;HEIGHT:0.25
;BEFORE_LAYER_CHANGE
G1 Z1.05 F720
;AFTER_LAYER_CHANGE
;TYPE:Top_surface
;WIDTH:0.42
G1 X13.000 Y13.000 F9000
G1 X27.000 Y13.000 E18.95000 F2400
G1 X13.000 Y15.000 E19.50000
G1 X27.000 Y17.000 E20.05000
G1 X13.000 Y19.000 E20.60000
;TYPE:Outer_wall
;WIDTH:0.45
G1 X10.000 Y10.000 F9000
G1 X30.000 Y10.000 E21.25000 F3300
G1 X30.000 Y30.000 E21.90000
M104 S0
M140 S0
